icons/label-arrow-down-outline.svg

<svg xmlns="http://www.w3.org/2000/svg" width="24" height="24" viewBox="0 0 24 24">
  <path d="M14.1715729,4 C14.9672223,4 15.7302841,4.31607052 16.2928932,4.87867966 L16.2928932,4.87867966 L21.2928932,9.87867966 C22.4644661,11.0502525 22.4644661,12.9497475 21.2928932,14.1213203 L21.2928932,14.1213203 L16.2928932,19.1213203 C15.7302841,19.6839295 14.9672223,20 14.1715729,20 L14.1715729,20 L5,20 C3.34314575,20 2,18.6568542 2,17 L2,17 L2,7 C2,5.34314575 3.34314575,4 5,4 L5,4 Z M14.1715729,6 L5,6 C4.44771525,6 4,6.44771525 4,7 L4,7 L4,17 C4,17.5522847 4.44771525,18 5,18 L5,18 L14.1715729,18 C14.4367894,18 14.6911433,17.8946432 14.8786797,17.7071068 L14.8786797,17.7071068 L19.8786797,12.7071068 C20.2692039,12.3165825 20.2692039,11.6834175 19.8786797,11.2928932 L19.8786797,11.2928932 L14.8786797,6.29289322 C14.6911433,6.10535684 14.4367894,6 14.1715729,6 L14.1715729,6 Z M10,8 C10.5522847,8 11,8.44771525 11,9 L11,9 L11,12.585 L12.2928932,11.2928932 L12.3871006,11.2097046 C12.7793918,10.9046797 13.3466228,10.9324093 13.7071068,11.2928932 C14.0976311,11.6834175 14.0976311,12.3165825 13.7071068,12.7071068 L13.7071068,12.7071068 L10.7071068,15.7071068 L10.625449,15.7803112 C10.6225624,15.7826279 10.6196628,15.7849289 10.6128994,15.7902954 C10.6070733,15.7948255 10.6012086,15.7992821 10.5951593,15.8036865 C10.5711307,15.8215099 10.546275,15.8382813 10.5207088,15.8540045 C10.5086131,15.8613931 10.4963944,15.8685012 10.484277,15.8751242 C10.4642939,15.8862061 10.4438914,15.8966234 10.4232215,15.9063266 L10.4232215,15.9063266 L10.3710585,15.928896 C10.3515792,15.9366843 10.3317977,15.9438775 10.3121425,15.9502619 C10.2968513,15.9552713 10.2814633,15.9599023 10.2658396,15.964279 C10.2444365,15.9701664 10.2227461,15.9753602 10.2007258,15.9797599 C10.1833753,15.9832978 10.165949,15.9863719 10.1489612,15.9889807 L10.1489612,15.9889807 L10.08,15.996 L10.045,15.998 L10.019,15.999 L10,16 C9.99359377,16 9.9872016,15.9999398 9.98082404,15.9998198 L9.98082404,15.9998198 L9.94096861,15.9982669 C9.93088722,15.9976744 9.92081308,15.99693 9.90996805,15.996002 L9.90996805,15.996002 L9.85153313,15.9889822 C9.83405099,15.9863719 9.81662474,15.9832978 9.7992059,15.9798348 C9.77725392,15.9753602 9.75556352,15.9701664 9.73400703,15.9641549 C9.71853672,15.9599023 9.70314866,15.9552713 9.68826359,15.9504533 C9.66820232,15.9438775 9.6484208,15.9366843 9.62866398,15.9287745 L9.62866398,15.9287745 L9.57690085,15.9063462 C9.5561086,15.8966234 9.53570605,15.8862061 9.5159379,15.8753288 L9.5159379,15.8753288 L9.47933981,15.8539326 C9.45372505,15.8382813 9.42886931,15.8215099 9.40469339,15.8036654 L9.40469339,15.8036654 L9.38,15.784 L9.38324992,15.787214 L9.378,15.783 L9.37455101,15.7803112 L9.359,15.767 L9.34743396,15.757792 L9.34743396,15.757792 L9.29289322,15.7071068 L6.29289322,12.7071068 L6.20970461,12.6128994 C5.90467972,12.2206082 5.93240926,11.6533772 6.29289322,11.2928932 C6.68341751,10.9023689 7.31658249,10.9023689 7.70710678,11.2928932 L7.70710678,11.2928932 L9,12.585 L9,9 L9.00672773,8.88337887 C9.06449284,8.38604019 9.48716416,8 10,8 Z"/>
</svg>

<svg xmlns="http://www.w3.org/2000/svg" viewBox="0 0 24 24">
  <path d="M14.17 4a3 3 0 0 1 2.12.88l5 5a3 3 0 0 1 0 4.24l-5 5a3 3 0 0 1-2.12.88H5a3 3 0 0 1-3-3V7a3 3 0 0 1 3-3zm0 2H5a1 1 0 0 0-1 1v10a1 1 0 0 0 1 1h9.17a1 1 0 0 0 .7-.3l5-5a1 1 0 0 0 0-1.4l-5-5a1 1 0 0 0-.7-.3zM10 8a1 1 0 0 1 1 1v3.59l1.3-1.3.09-.08a1 1 0 0 1 1.32 1.5l-3 3-.08.07a3 3 0 0 1-.15.1l-.06.03-.05.02a.95.95 0 0 1-.22.06h-.13L10 16h-.09l-.06-.01a1.1 1.1 0 0 1-.22-.06l-.05-.02a1.04 1.04 0 0 1-.06-.03l-.04-.03a1.03 1.03 0 0 1-.08-.05l-.02-.02-.02-.01-.01-.01-.06-.05-3-3-.08-.1a1 1 0 0 1 1.5-1.32L9 12.6V8.88A1 1 0 0 1 10 8z"/>
</svg>
